X:1
T:Monson, CM
T:Monson, CM
T:Samuel R. Brown, arr by Thomas Hastings, 1838
T:Public Domain Courtesy of the Cyber Hymnal™
C:Samuel R. Brown, arr by Thomas Hastings, 1838
Z:Public Domain
Z:Courtesy of the Cyber Hymnal™
%%score ( 1 2 ) ( 3 4 )
L:1/8
M:3/4
K:Ab
V:1 treble 
V:2 treble 
V:3 bass 
V:4 bass 
V:1
 [CE]2 | ([CE]2 [Ec]2) [DB]2 | [CA]4 E2 | (E2 d2) [Ec]2 | (c2 B2) E2 | (A2 B2) [Ec]2 | %6
 [DF]4 [DG]2 | [CA]6- | [CA]4 [Ee]2 | [Ee]4 [Ed]2 | [Ec]4 [=Ec]2 | [Fc]4 [FB]2 | (A2 G2) E2 | %13
 (A2 c2) [_Ge]2 | (e2 d2) [DB]2 | [CA]6- | [CA]4 |] %17
V:2
 x2 | x6 | x4 E2 | E4 x2 | E4 E2 | E4 x2 | x6 | x6 | x6 | x6 | x6 | x6 | E4 E2 | E4 x2 | F4 x2 | %15
 x6 | x4 |] %17
V:3
 [A,,A,]2 | [A,,A,]4 [E,G,]2 | A,4 [CE]2 | ([B,D]2 [G,B,]2) A,2 | (A,2 G,2) [D,G,]2 | %5
 ([C,A,]2 [B,,G,]2) [A,,A,]2 | ([D,A,]2 [B,,B,]2) [E,B,]2 | [A,,A,]6- | [A,,A,]4 [A,C]2 | %9
 ([G,B,]2 [F,A,]2) [G,B,]2 | A,4 [G,B,]2 | [F,A,]4 [F,D]2 | (C2 B,2) [D,G,]2 | A,4 [C,A,]2 | %14
 ([D,A,]2 [B,,B,]2) [F,A,]2 | [A,,A,]6- | [A,,A,]4 |] %17
V:4
 x2 | x6 | A,4 x2 | x4 A,2 | E,4 x2 | x6 | x6 | x6 | x6 | x6 | A,4 x2 | x6 | E,4 x2 | %13
 (C,2 A,,2) x2 | x6 | x6 | x4 |] %17

